X:2123 
T:Vel shiuish ben aeg y phoosee 
C:Tom Kermode, Bradda 
C:Traditional
O:Isle of Man
Z:Clague collection
B:Kiaull Vannin #123 
M:3/4 
L:1/4 
Q:140 
K:G 
G|B d d|d2 d/e/|=f2 e|d2 d|d2 B|A A d|e2 e|d2 d| 
B c B|B A G|c c B|(AG) E|G2 E|D E G|B2 A|G2|| 

